dist/svg/u1F47B.svg

<?xml version="1.0" encoding="UTF-8"?><svg id="Layer_1" xmlns="http://www.w3.org/2000/svg" viewBox="0 0 40 40"><g><g><path d="M33.9203,36.04437c.61409-.89335,.91831-2.00915,.7612-3.18292-.76557-5.71748-1.99995-14.69591-2.7646-19.02448-1.16307-6.58311-5.66503-10.83697-11.91688-10.83697S9.24621,7.25386,8.08314,13.83697c-.76465,4.32857-1.99903,13.307-2.7646,19.02448-.15424,1.15163,.13733,2.24632,.7283,3.13105,.60661,.54507,1.29914,1.00751,2.47337,1.00751,2.87363,0,2.87363-2.75838,5.7475-2.75838,2.87294,0,2.87294,2.75838,5.74589,2.75838s2.87294-2.75838,5.746-2.75838,2.87294,2.75838,5.74589,2.75838c1.13662,0,1.8219-.43351,2.41482-.95563Z" style="fill:#e0e0e0;"/><path d="M8.3081,24.69261l-6.11984-6.93589c-1.33676-1.51504-.05922-3.93454,1.74963-3.31365l5.67167,1.91781-1.30145,8.33173Z" style="fill:#e0e0e0;"/><path d="M31.6919,24.69261l6.11984-6.93589c1.33676-1.51504,.05922-3.93454-1.74963-3.31365l-5.67167,1.91781,1.30145,8.33173Z" style="fill:#e0e0e0;"/></g><g><g><circle cx="16.38041" cy="12.01369" r="1.75455"/><circle cx="23.70356" cy="12.07504" r="1.75455"/></g><path d="M26.29931,16.78033c-.13488-.19338-.37971-.27255-.60351-.20998-3.47543,1.05679-7.92576,1.01951-11.38294-.09537-.22374-.07054-.46883,.00769-.60695,.19984-.13705,.1911-.13499,.44887,.00628,.63808,1.41466,1.90058,3.75521,3.04729,6.25971,3.06828,2.50556,.02099,4.86505-1.08635,6.31041-2.96296,.14442-.18682,.15082-.44451,.017-.63788Z"/><path d="M22.55798,19.06883l.00148-1.87445c-1.7071,.1942-3.48922,.17782-5.1904-.05073l-.00215,2.74954v.011c-.00013,.00564,.00148,.0108,.00148,.01637l.00121,.01302c.00511,1.37453,1.14837,2.49401,2.57127,2.50596,1.43325,.01201,2.60488-1.10357,2.61644-2.49186l.00605-.87878-.00538-.00007Z" style="fill:#f93052;"/></g></g><rect width="40" height="40" style="fill:none;"/></svg>

<svg id="Layer_1" data-name="Layer 1" xmlns="http://www.w3.org/2000/svg" viewBox="0 0 40 40"><defs><style>.cls-1{fill:#e0e0e0;}.cls-2{fill:#f93052;}.cls-3{fill:none;}</style></defs><path class="cls-1" d="M33.92,36.044a4.525,4.525,0,0,0,.761-3.183c-.765-5.717-2-14.695-2.764-19.024C30.754,7.254,26.252,3,20,3S9.246,7.254,8.083,13.837c-.765,4.329-2,13.307-2.764,19.024a4.521,4.521,0,0,0,.728,3.131A3.412,3.412,0,0,0,8.52,37c2.874,0,2.874-2.758,5.748-2.758S17.141,37,20.014,37s2.873-2.758,5.746-2.758S28.633,37,31.505,37A3.384,3.384,0,0,0,33.92,36.044Z"/><path class="cls-1" d="M8.308,24.693l-6.12-6.936c-1.336-1.515-.059-3.935,1.75-3.314L9.61,16.361Z"/><path class="cls-1" d="M31.692,24.693l6.12-6.936c1.336-1.515.059-3.935-1.75-3.314L30.39,16.361Z"/><circle cx="16.38" cy="12.014" r="1.755"/><circle cx="23.704" cy="12.075" r="1.755"/><path d="M26.3,16.78a.554.554,0,0,0-.6-.21,20.293,20.293,0,0,1-11.383-.095.541.541,0,0,0-.6.838,8.058,8.058,0,0,0,12.57.105A.539.539,0,0,0,26.3,16.78Z"/><path class="cls-2" d="M22.558,19.069V17.194a21.306,21.306,0,0,1-5.19-.05l0,2.749V19.9c0,.006,0,.011,0,.017l0,.013a2.6,2.6,0,0,0,5.187.014l.006-.879Z"/><rect class="cls-3" width="40" height="40"/></svg>
